svgs/xiaodash.svg

<svg width="192" height="192" viewBox="0 0 192 192" fill="none" xmlns="http://www.w3.org/2000/svg">
<path d="M111.325 22H119.754L146.766 142.415" stroke="black" stroke-width="12" stroke-linecap="round" stroke-linejoin="round"/>
<path d="M163.855 156.394C163.855 158.18 163.503 159.95 162.82 161.6C162.136 163.251 161.134 164.751 159.87 166.015C158.607 167.278 157.107 168.28 155.456 168.964C153.805 169.648 152.036 170 150.249 170C148.463 170 146.693 169.648 145.043 168.964C143.392 168.28 141.892 167.278 140.628 166.015C139.365 164.751 138.363 163.251 137.679 161.6C136.995 159.95 136.643 158.18 136.643 156.394C136.643 154.607 136.995 152.838 137.679 151.187C138.363 149.536 139.365 148.036 140.628 146.773C141.892 145.509 143.392 144.507 145.043 143.823C146.693 143.139 148.463 142.788 150.249 142.788C152.036 142.788 153.805 143.139 155.456 143.823C157.107 144.507 158.607 145.509 159.87 146.773C161.134 148.036 162.136 149.536 162.82 151.187C163.503 152.838 163.855 154.607 163.855 156.394Z" stroke="black" stroke-width="12" stroke-linecap="round" stroke-linejoin="round"/>
<path d="M56.2121 156.394C56.2121 160.003 54.7786 163.463 52.227 166.015C49.6754 168.567 46.2146 170 42.6061 170C38.9975 170 35.5368 168.567 32.9851 166.015C30.4335 163.463 29 160.003 29 156.394C29 154.607 29.3519 152.838 30.0357 151.187C30.7195 149.536 31.7217 148.036 32.9851 146.773C34.2486 145.51 35.7485 144.507 37.3992 143.824C39.05 143.14 40.8193 142.788 42.6061 142.788C44.3928 142.788 46.1621 143.14 47.8129 143.824C49.4636 144.507 50.9636 145.51 52.227 146.773C53.4904 148.036 54.4926 149.536 55.1764 151.187C55.8602 152.838 56.2121 154.607 56.2121 156.394Z" stroke="black" stroke-width="12" stroke-linecap="round" stroke-linejoin="round"/>
<path d="M56.7622 157.13H115.937L142.064 123.611" stroke="black" stroke-width="12" stroke-linecap="round" stroke-linejoin="round"/>
<path d="M49.4229 37.8381V44.8792L62.5828 52.0834L67.7901 48.6646" stroke="black" stroke-width="12" stroke-linecap="round" stroke-linejoin="round"/>
<path d="M63.0837 51.6214V67.4041L67.7852 70.7675" stroke="black" stroke-width="12" stroke-linecap="round" stroke-linejoin="round"/>
<path d="M62.3917 66.8839L49.9099 75.8331V81.1365" stroke="black" stroke-width="12" stroke-linecap="round" stroke-linejoin="round"/>
<path d="M49.7981 75.9731L35.791 67.4342L30.1931 70.7303" stroke="black" stroke-width="12" stroke-linecap="round" stroke-linejoin="round"/>
<path d="M35.3662 68.1354V52.2774L29.9888 48.8423" stroke="black" stroke-width="12" stroke-linecap="round" stroke-linejoin="round"/>
<path d="M36.604 52.6232L49.6349 44.3987" stroke="black" stroke-width="12" stroke-linecap="round" stroke-linejoin="round"/>
</svg>

<svg width="192" height="192" viewBox="0 0 192 192" fill="none" xmlns="http://www.w3.org/2000/svg"><path d="M111.325 22h8.429l27.012 120.415M163.855 156.394a13.616 13.616 0 0 1-3.985 9.621 13.608 13.608 0 0 1-23.227-9.621 13.603 13.603 0 0 1 8.4-12.571 13.597 13.597 0 0 1 10.413 0 13.595 13.595 0 0 1 4.414 2.95 13.595 13.595 0 0 1 3.985 9.621ZM56.212 156.394a13.606 13.606 0 1 1-27.212 0 13.606 13.606 0 0 1 27.212 0Z" stroke="#000" stroke-width="12" stroke-linecap="round" stroke-linejoin="round"/><path d="M56.762 157.13h59.175l26.127-33.519M49.423 37.838v7.041l13.16 7.204 5.207-3.418" stroke="#000" stroke-width="12" stroke-linecap="round" stroke-linejoin="round"/><path d="M63.084 51.621v15.783l4.701 3.364M62.392 66.884l-12.482 8.95v5.302M49.798 75.973l-14.007-8.539-5.598 3.296" stroke="#000" stroke-width="12" stroke-linecap="round" stroke-linejoin="round"/><path d="M35.366 68.135V52.277l-5.377-3.435M36.604 52.623l13.03-8.224" stroke="#000" stroke-width="12" stroke-linecap="round" stroke-linejoin="round"/></svg>
